tools/download-figma-icons/icons/solid/work-life-balance.svg

<svg width="24" height="24" viewBox="0 0 24 24" fill="none" xmlns="http://www.w3.org/2000/svg">
<path fill-rule="evenodd" clip-rule="evenodd" d="M18.1948 9.504C18.3366 9.66075 18.5383 9.75 18.7498 9.75C18.9613 9.75 19.1631 9.66075 19.3048 9.504L23.1306 5.29275C24.2856 4.0875 24.2856 2.12775 23.1313 0.924C22.5636 0.3285 21.8068 0 20.9991 0C20.1913 0 19.4338 0.32925 18.8668 0.92475L18.7498 1.04775L18.6336 0.9255C18.0658 0.32925 17.3083 0 16.5006 0C15.6921 0 14.9346 0.32925 14.3691 0.92325C13.2141 2.12775 13.2141 4.0875 14.3556 5.27775L18.1948 9.504ZM15 13.5001C15 15.1546 13.6545 16.5001 12 16.5001C10.3455 16.5001 9 15.1546 9 13.5001C9 11.8456 10.3455 10.5001 12 10.5001C13.6545 10.5001 15 11.8456 15 13.5001ZM20.25 12.7501H23.25C23.6647 12.7501 24 13.0853 24 13.5001C24 13.9148 23.6647 14.2501 23.25 14.2501H20.8515L19.4827 20.4128C19.428 20.6544 19.2592 20.8539 19.0297 20.9461C18.9397 20.9828 18.8445 21.0001 18.75 21.0001C18.6045 21.0001 18.459 20.9573 18.3337 20.8741L15.75 19.1514V23.2501C15.75 23.6649 15.4148 24.0001 15 24.0001H9C8.58525 24.0001 8.25 23.6649 8.25 23.2501V19.1514L5.66625 20.8741C5.45925 21.0113 5.19825 21.0391 4.97025 20.9461C4.74075 20.8539 4.572 20.6544 4.51725 20.4128L3.1485 14.2501H0.75C0.33525 14.2501 0 13.9148 0 13.5001C0 13.0853 0.33525 12.7501 0.75 12.7501H3.75C4.10175 12.7501 4.4055 12.9938 4.48275 13.3373L5.74425 19.0186L8.20875 17.3761C8.33175 17.2943 8.47725 17.2501 8.625 17.2501H15.375C15.5227 17.2501 15.6683 17.2943 15.7913 17.3761L18.2557 19.0186L19.5173 13.3373C19.5945 12.9938 19.8983 12.7501 20.25 12.7501ZM5.25 2.2501H3.75V1.5001H5.25V2.2501ZM8.25 9.7501H0.75C0.33525 9.7501 0 9.41485 0 9.0001V3.0001C0 2.58535 0.33525 2.2501 0.75 2.2501H2.25V0.7501C2.25 0.33535 2.58525 0.0001 3 0.0001H6C6.41475 0.0001 6.75 0.33535 6.75 0.7501V2.2501H8.25C8.66475 2.2501 9 2.58535 9 3.0001V9.0001C9 9.41485 8.66475 9.7501 8.25 9.7501Z" fill="black"/>
</svg>

<svg xmlns="http://www.w3.org/2000/svg" width="24" height="24" fill="none" viewBox="0 0 24 24"><path fill="currentColor" fill-rule="evenodd" d="M18.195 9.504a.75.75 0 0 0 1.11 0l3.826-4.211c1.155-1.205 1.155-3.165 0-4.369A2.93 2.93 0 0 0 21 0c-.808 0-1.565.33-2.132.925l-.117.123-.116-.123A2.93 2.93 0 0 0 16.5 0c-.809 0-1.566.33-2.132.923-1.155 1.205-1.155 3.165-.013 4.355zM15 13.5c0 1.655-1.345 3-3 3s-3-1.345-3-3c0-1.654 1.345-3 3-3s3 1.346 3 3m5.25-.75h3a.75.75 0 1 1 0 1.5h-2.398l-1.37 6.163a.753.753 0 0 1-1.148.461l-2.584-1.723v4.1A.75.75 0 0 1 15 24H9a.75.75 0 0 1-.75-.75v-4.1l-2.584 1.723a.75.75 0 0 1-1.149-.461L3.148 14.25H.75a.75.75 0 1 1 0-1.5h3a.75.75 0 0 1 .733.587l1.261 5.682 2.465-1.643a.75.75 0 0 1 .416-.126h6.75a.75.75 0 0 1 .416.126l2.465 1.643 1.261-5.682a.75.75 0 0 1 .733-.587m-15-10.5h-1.5V1.5h1.5zm3 7.5H.75A.75.75 0 0 1 0 9V3a.75.75 0 0 1 .75-.75h1.5V.75A.75.75 0 0 1 3 0h3a.75.75 0 0 1 .75.75v1.5h1.5A.75.75 0 0 1 9 3v6a.75.75 0 0 1-.75.75" clip-rule="evenodd"/></svg>
